assets/logos/protonVPN.svg

<svg xmlns="http://www.w3.org/2000/svg" xmlns:xlink="http://www.w3.org/1999/xlink" width="100%" height="100%" viewBox="0 0 552 552" fill-rule="evenodd" stroke-linejoin="round" stroke-miterlimit="2" xmlns:v="https://vecta.io/nano"><g transform="matrix(1.51348 0 0 1.51348 -144.036 -149.31)"><use xlink:href="#D" fill="url(#A)"/><use xlink:href="#D" fill="url(#B)"/><path d="M263.755 379.083l-12.308 18.501c-4.987 7.497-16.146 7.035-20.497-.848l12.687 22.986c2.262 4.099 5.137 7.528 8.421 10.28l.001-.002c15.738 13.184 40.889 10.825 53.194-7.927l138.686-211.347c14.707-22.413.636-52.462-25.997-55.516l-272.591-31.259c-29.062-3.332-49.755 27.552-35.619 53.162l1.076 1.95 232.021 26.846c14.79 1.711 22.591 18.404 14.417 30.847l-93.491 142.327z" fill="url(#C)" fill-rule="nonzero"/></g><defs><linearGradient id="A" x1="294.571" y1="-66.981" x2="306.3" y2="331.785" gradientUnits="userSpaceOnUse"><stop offset="0" stop-color="#6d4aff"/></linearGradient><linearGradient id="B" x1="296.864" y1="-11.777" x2="199.399" y2="407.86" gradientUnits="userSpaceOnUse"><stop offset="0" stop-color="#24ecc6" stop-opacity="0"/><stop offset=".48" stop-color="#24ecc6" stop-opacity="0"/><stop offset=".99" stop-color="#24ecc6"/></linearGradient><linearGradient id="C" x1="329.101" y1="453.838" x2="113.001" y2="84.283" gradientUnits="userSpaceOnUse"><stop offset="0" stop-color="#abffef"/><stop offset=".07" stop-color="#abffef"/><stop offset=".45" stop-color="#cac9ff"/><stop offset="1" stop-color="#6d4aff"/></linearGradient><path id="D" d="M243.637 419.72c13.1 23.735 46.743 25.021 61.616 2.355l138.686-211.348c14.707-22.413.636-52.463-25.997-55.517l-272.591-31.258c-29.062-3.332-49.755 27.551-35.619 53.162L243.637 419.72z"/></defs></svg>

<?xml version="1.0" encoding="UTF-8" standalone="no"?>
<!DOCTYPE svg PUBLIC "-//W3C//DTD SVG 1.1//EN" "http://www.w3.org/Graphics/SVG/1.1/DTD/svg11.dtd">
<svg width="100%" height="100%" viewBox="0 0 552 552" version="1.1" xmlns="http://www.w3.org/2000/svg" xmlns:xlink="http://www.w3.org/1999/xlink" xml:space="preserve" xmlns:serif="http://www.serif.com/" style="fill-rule:evenodd;clip-rule:evenodd;stroke-linejoin:round;stroke-miterlimit:2;">
    <g transform="matrix(1.51348,0,0,1.51348,-144.036,-149.31)">
        <path d="M243.637,419.72C256.737,443.455 290.38,444.741 305.253,422.075L443.939,210.727C458.646,188.314 444.575,158.264 417.942,155.21L145.351,123.952C116.289,120.62 95.596,151.503 109.732,177.114L243.637,419.72Z" style="fill:url(#_Linear1);"/>
    </g>
    <g transform="matrix(1.51348,0,0,1.51348,-144.036,-149.31)">
        <path d="M243.637,419.72C256.737,443.455 290.38,444.741 305.253,422.075L443.939,210.727C458.646,188.314 444.575,158.264 417.942,155.21L145.351,123.952C116.289,120.62 95.596,151.503 109.732,177.114L243.637,419.72Z" style="fill:url(#_Linear2);"/>
    </g>
    <g transform="matrix(1.51348,0,0,1.51348,-144.036,-149.31)">
        <path d="M263.755,379.083L251.447,397.584C246.46,405.081 235.301,404.619 230.95,396.736L243.637,419.722C245.899,423.821 248.774,427.25 252.058,430.002L252.059,430C267.797,443.184 292.948,440.825 305.253,422.073L443.939,210.726C458.646,188.313 444.575,158.264 417.942,155.21L145.351,123.951C116.289,120.619 95.596,151.503 109.732,177.113L110.808,179.063L342.829,205.909C357.619,207.62 365.42,224.313 357.246,236.756L263.755,379.083Z" style="fill:url(#_Linear3);fill-rule:nonzero;"/>
    </g>
    <defs>
        <linearGradient id="_Linear1" x1="0" y1="0" x2="1" y2="0" gradientUnits="userSpaceOnUse" gradientTransform="matrix(11.729,398.766,-398.766,11.729,294.571,-66.9807)"><stop offset="0" style="stop-color:rgb(109,74,255);stop-opacity:1"/><stop offset="1" style="stop-color:rgb(109,74,255);stop-opacity:1"/></linearGradient>
        <linearGradient id="_Linear2" x1="0" y1="0" x2="1" y2="0" gradientUnits="userSpaceOnUse" gradientTransform="matrix(-97.465,419.637,-419.637,-97.465,296.864,-11.7772)"><stop offset="0" style="stop-color:rgb(36,236,198);stop-opacity:0"/><stop offset="0.48" style="stop-color:rgb(36,236,198);stop-opacity:0"/><stop offset="0.99" style="stop-color:rgb(36,236,198);stop-opacity:1"/><stop offset="1" style="stop-color:rgb(36,236,198);stop-opacity:1"/></linearGradient>
        <linearGradient id="_Linear3" x1="0" y1="0" x2="1" y2="0" gradientUnits="userSpaceOnUse" gradientTransform="matrix(-216.1,-369.555,369.555,-216.1,329.101,453.838)"><stop offset="0" style="stop-color:rgb(171,255,239);stop-opacity:1"/><stop offset="0.07" style="stop-color:rgb(171,255,239);stop-opacity:1"/><stop offset="0.45" style="stop-color:rgb(202,201,255);stop-opacity:1"/><stop offset="1" style="stop-color:rgb(109,74,255);stop-opacity:1"/></linearGradient>
    </defs>
</svg>
